actions/scalable/view-sort-descending.svg

<svg height="22" width="22" xmlns="http://www.w3.org/2000/svg" xmlns:sodipodi="http://sodipodi.sourceforge.net/DTD/sodipodi-0.dtd" xmlns:inkscape="http://www.inkscape.org/namespaces/inkscape">
 <path d="m3 3v4h4v-4h-4zm1 1h2v2h-2v-2zm4 0v1h11v-1h-11zm-5 5v4h4v-4h-4zm5 1v1h11v-1h-11zm-5 5v4h4v-4h-4zm5 1v1h11v-1h-11z" fill="#4d4d4d" transform="matrix(1 0 0 1 0 0)"/>
</svg>

<?xml version="1.0" encoding="UTF-8" standalone="no"?>
<!-- Created with Inkscape (http://www.inkscape.org/) -->

<svg
   xmlns:dc="http://purl.org/dc/elements/1.1/"
   xmlns:cc="http://creativecommons.org/ns#"
   xmlns:rdf="http://www.w3.org/1999/02/22-rdf-syntax-ns#"
   xmlns:svg="http://www.w3.org/2000/svg"
   xmlns="http://www.w3.org/2000/svg"
   xmlns:sodipodi="http://sodipodi.sourceforge.net/DTD/sodipodi-0.dtd"
   xmlns:inkscape="http://www.inkscape.org/namespaces/inkscape"
   width="22"
   height="22"
   id="svg3049"
   version="1.1"
   inkscape:version="0.48+devel r"
   sodipodi:docname="view-sort-descending.svg"
   inkscape:export-filename="/home/uri/.kde/share/icons/NITRUX-KDE/16x16/actions/view-right-new.png"
   inkscape:export-xdpi="30"
   inkscape:export-ydpi="30">
  <defs
     id="defs3051" />
  <sodipodi:namedview
     id="base"
     pagecolor="#ffffff"
     bordercolor="#666666"
     borderopacity="1.0"
     inkscape:pageopacity="0.0"
     inkscape:pageshadow="2"
     inkscape:zoom="24.888089"
     inkscape:cx="8.7979373"
     inkscape:cy="11.308674"
     inkscape:document-units="px"
     inkscape:current-layer="layer1"
     showgrid="true"
     fit-margin-top="0"
     fit-margin-left="0"
     fit-margin-right="0"
     fit-margin-bottom="0"
     inkscape:window-width="1366"
     inkscape:window-height="668"
     inkscape:window-x="-2"
     inkscape:window-y="23"
     inkscape:window-maximized="1"
     inkscape:showpageshadow="false"
     borderlayer="true">
    <sodipodi:guide
       position="2.0000044,20.00003"
       orientation="18,0"
       id="guide4067" />
    <sodipodi:guide
       position="2.0000044,2.0000296"
       orientation="0,18"
       id="guide4069" />
    <sodipodi:guide
       position="20.000004,2.0000296"
       orientation="-18,0"
       id="guide4071" />
    <sodipodi:guide
       position="20.000004,20.00003"
       orientation="0,-18"
       id="guide4073" />
    <sodipodi:guide
       position="3.0000044,19.00003"
       orientation="16,0"
       id="guide4077" />
    <sodipodi:guide
       position="3.0000044,3.0000296"
       orientation="0,16"
       id="guide4079" />
    <sodipodi:guide
       position="19.000004,3.0000296"
       orientation="-16,0"
       id="guide4081" />
    <sodipodi:guide
       position="19.000004,19.00003"
       orientation="0,-16"
       id="guide4083" />
    <inkscape:grid
       type="xygrid"
       id="grid4085" />
  </sodipodi:namedview>
  <metadata
     id="metadata3054">
    <rdf:RDF>
      <cc:Work
         rdf:about="">
        <dc:format>image/svg+xml</dc:format>
        <dc:type
           rdf:resource="http://purl.org/dc/dcmitype/StillImage" />
        <dc:title />
      </cc:Work>
    </rdf:RDF>
  </metadata>
  <g
     inkscape:label="Capa 1"
     inkscape:groupmode="layer"
     id="layer1"
     transform="translate(-421.71429,-525.79074)">
    <path
       style="opacity:1;fill:#666666;fill-opacity:1;stroke:none"
       d="M 3 3 L 3 7 L 7 7 L 7 3 L 3 3 z M 4 4 L 6 4 L 6 6 L 4 6 L 4 4 z M 8 4 L 8 5 L 19 5 L 19 4 L 8 4 z M 3 9 L 3 13 L 7 13 L 7 9 L 3 9 z M 8 10 L 8 11 L 19 11 L 19 10 L 8 10 z M 3 15 L 3 19 L 7 19 L 7 15 L 3 15 z M 8 16 L 8 17 L 19 17 L 19 16 L 8 16 z "
       transform="translate(421.71429,525.79074)"
       id="rect4108" />
  </g>
</svg>
